apps/frontend/public/assets/svg/avatar.svg

<svg width="116" height="130" viewBox="0 0 116 130" fill="none" xmlns="http://www.w3.org/2000/svg">
<g id="Group 1">
<path id="Vector" d="M73.7725 65.6238C73.0168 64.9087 72.5046 64.1276 72.3829 63.2756C72.0532 60.9375 72.0329 58.6552 72.0329 58.1581C72.0177 55.9265 72.0785 51.2757 72.2865 48.8869C72.2408 48.963 69.6948 48.0856 69.8571 50.0331C70.3694 56.2156 64.2528 60.3694 57.1827 60.2224C52.8412 60.1311 48.941 56.9967 46.111 52.569C45.6647 51.8742 45.2437 51.1489 44.8532 50.3932C45.2336 53.3146 45.4415 56.1041 45.5176 58.8733C45.5176 59.0001 45.4922 59.8927 45.4567 60.8411C45.3147 64.934 37.0274 69.1639 33.0156 70.5536C43.2911 88.457 59.3331 100.65 79.4428 78.3134L85.2348 71.076C83.1401 70.1123 76.6584 68.3474 73.7725 65.6187V65.6238Z" fill="#EEEAFF"/>
<path id="Vector_2" d="M72.2815 51.2454C72.2358 51.3265 72.1902 51.4026 72.1445 51.4837C72.1902 51.4077 72.2358 51.3265 72.2815 51.2504V51.2454Z" fill="#F6F6FF"/>
<path id="Vector_3" fill-rule="evenodd" clip-rule="evenodd" d="M108.312 84.3692C108.277 84.2931 108.241 84.2221 108.211 84.146C106.771 81.0877 104.25 78.6685 101.141 77.3397L77.2933 67.1099C77.2933 67.1099 58.4921 105.199 37.9463 66.1462L15.6812 75.1639C12.3794 76.5028 9.67616 78.988 8.06333 82.163C7.98218 82.3253 7.90104 82.4876 7.81989 82.6498C3.22485 91.8247 0.912109 101.978 0.912109 112.244V130H115.088V115.221C115.088 104.565 112.821 94.0157 108.312 84.3641V84.3692Z" fill="white"/>
<path id="Vector_4" fill-rule="evenodd" clip-rule="evenodd" d="M45.4823 57.9807C36.8653 66.4201 32.747 82.9998 30.201 95.4409C27.1376 95.7604 24.7539 98.347 24.7539 101.492C24.7539 104.854 27.4775 107.578 30.8401 107.578C34.2027 107.578 36.9262 104.854 36.9262 101.492C36.9262 98.8593 35.2576 96.6277 32.9195 95.7756C37.2204 73.6068 42.8501 64.5993 45.528 61.5715C45.528 59.7406 45.6091 59.279 45.4823 57.9756V57.9807Z" fill="#4C0069"/>
<path id="Vector_5" fill-rule="evenodd" clip-rule="evenodd" d="M30.8411 97.7942C32.885 97.7942 34.5435 99.4527 34.5435 101.497C34.5435 103.541 32.885 105.199 30.8411 105.199C28.7971 105.199 27.1387 103.541 27.1387 101.497C27.1387 99.4527 28.7971 97.7942 30.8411 97.7942Z" fill="#AC9AF8"/>
<path id="Vector_6" fill-rule="evenodd" clip-rule="evenodd" d="M89.7454 84.9778L91.551 85.2009L89.502 107.491C89.502 107.491 84.841 116.139 83.5122 117.108C82.508 116.565 81.8131 115.951 81.6914 115.89C81.6914 115.89 87.1994 109.601 87.7928 106.234C88.3811 102.866 89.7403 84.9778 89.7403 84.9778H89.7454Z" fill="#AC9AF8"/>
<path id="Vector_7" fill-rule="evenodd" clip-rule="evenodd" d="M75.2587 85.8754L73.4277 86.6058L81.8165 105.757C82.2324 106.71 82.2831 106.822 83.0236 107.507C84.6871 109.048 89.9364 113.826 91.25 114.242C92.0311 113.41 92.4926 112.609 92.589 112.507C92.589 112.507 85.5595 108.338 83.9263 105.331C82.2932 102.328 75.2587 85.8704 75.2587 85.8704V85.8754Z" fill="#AC9AF8"/>
<path id="Vector_8" fill-rule="evenodd" clip-rule="evenodd" d="M86.7167 73.9518C85.5857 73.1707 84.2163 72.6179 82.6745 72.3694C79.8394 66.3796 77.1209 62.7127 72.0288 58.1582C72.0288 58.1582 71.9832 59.5174 72.2266 61.3788C74.8335 63.4633 78.3533 68.2003 80.4936 72.2273C78.5511 72.2831 76.4108 72.7903 74.159 73.8909C71.5064 75.1842 71.8817 80.0633 72.2266 82.0768C72.5715 84.0953 73.6011 87.5492 73.7786 87.8992C74.3517 87.7825 75.5993 87.4681 75.9797 87.3108C75.9797 87.3108 73.4743 78.699 74.8944 76.6804C76.6999 74.1141 82.2332 74.0278 84.7996 75.6254C88.7099 78.065 90.1199 84.4149 89.2171 88.6853L91.5146 89.0302C92.1283 82.2847 90.5814 76.6144 86.7218 73.9518H86.7167Z" fill="#4C0069"/>
<path id="Vector_9" fill-rule="evenodd" clip-rule="evenodd" d="M92.1934 115.515C91.7218 115.185 91.3211 114.815 91.0117 114.44L92.5333 112.203C92.9999 112.365 93.0151 112.279 93.9889 112.964C94.9626 113.649 96.1799 114.759 95.48 115.845C94.7801 116.93 93.6541 116.54 92.1934 115.52V115.515Z" fill="#4C0069"/>
<path id="Vector_10" fill-rule="evenodd" clip-rule="evenodd" d="M80.6658 116.717C80.9853 116.235 81.3454 115.83 81.7106 115.51L83.9878 116.971C83.8357 117.442 83.9219 117.453 83.2626 118.447C82.6032 119.436 81.528 120.688 80.4224 120.014C79.3167 119.344 79.6768 118.203 80.6607 116.722L80.6658 116.717Z" fill="#4C0069"/>
<g id="Group">
<path id="Vector_11" fill-rule="evenodd" clip-rule="evenodd" d="M58.0451 59.7253C65.4956 59.8825 69.1473 56.1852 72.2512 50.4084C73.3213 48.4152 74.148 46.1684 74.7516 43.7441C74.7212 42.4761 75.1421 40.4576 75.3196 37.7391C75.4566 35.6647 75.7406 33.773 76.1768 32.292C76.1768 32.2818 76.1768 32.2717 76.1768 32.2616C76.121 32.3376 76.0601 32.4137 75.9942 32.4949C75.6696 27.2557 74.4168 17.7157 73.6662 15.4739C71.9773 14.0741 72.591 4.26529 55.8085 5.32529C45.7562 4.73189 41.6227 15.9152 41.5567 16.0217C40.5322 17.6548 40.3141 24.3344 39.7461 31.8203C39.7664 32.0485 39.7867 32.2768 39.812 32.505C40.1721 33.92 40.3953 35.6495 40.5018 37.5312C40.5829 39.007 40.7351 40.275 40.8568 41.3299C41.4604 44.1752 42.4595 46.9799 43.7731 49.5158C46.8973 55.5411 51.0055 59.7202 58.0451 59.7152V59.7253Z" fill="#EEEAFF"/>
<path id="Vector_12" fill-rule="evenodd" clip-rule="evenodd" d="M39.5544 31.6174C39.6204 31.6884 39.6863 31.7594 39.7472 31.8254C40.0667 32.1703 40.305 32.4391 40.4014 32.505C40.9745 28.9243 40.1022 31.6681 41.8317 21.8999C42.3541 18.9582 42.562 18.2178 43.1909 17.2186C43.4343 16.8332 44.8037 16.5897 46.8223 16.4528C54.6126 15.9101 72.095 16.8636 72.161 16.9245C72.9116 19.1662 74.9707 28.0266 75.9952 32.4999C76.0612 32.4188 76.117 32.3427 76.1778 32.2666C76.1778 32.2666 76.1829 32.2565 76.188 32.2514C76.7712 30.314 77.6334 29.1018 78.7949 29.1779C78.9115 29.183 79.0231 29.2083 79.1296 29.2438C79.4998 25.2878 79.373 21.0123 79.1803 16.6557C79.302 4.07254 65.9987 -0.573215 55.9008 0.0556865C38.1698 1.16134 34.1175 12.9989 36.8258 29.1982C38.4437 29.1982 39.1335 30.3647 39.5494 31.6174H39.5544Z" fill="#4C0069"/>
<path id="Vector_13" fill-rule="evenodd" clip-rule="evenodd" d="M39.9495 32.5101C39.8684 32.1956 39.7822 31.8964 39.6909 31.6124C39.1279 29.9184 38.3265 28.8787 37.2513 28.9395C36.9825 28.9548 36.7289 29.0461 36.5007 29.1982C34.9842 30.1973 34.4061 33.9403 35.6182 37.4754C37.013 41.548 37.865 45.2251 39.914 45.1135C41.3392 45.0374 41.2631 43.739 40.9943 41.335C40.8777 40.2801 40.7204 39.0121 40.6393 37.5362C40.5378 35.6546 40.3096 33.92 39.9495 32.5101ZM38.2961 37.592C38.6004 38.8701 39.1938 39.0527 39.1533 40.1076C38.9808 44.2107 37.9259 40.8583 37.2818 39.6207C36.4855 38.0891 36.2775 35.0155 36.4348 33.849C36.592 32.6825 37.0586 30.3951 37.9817 30.4459C38.8692 30.4915 40.198 33.6157 38.9504 35.0663C38.6258 35.4466 37.9918 36.319 38.2961 37.5971V37.592Z" fill="#EEEAFF"/>
<path id="Vector_14" fill-rule="evenodd" clip-rule="evenodd" d="M37.9824 30.446C37.0593 30.4003 36.5927 32.6877 36.4355 33.8492C36.2782 35.0157 36.4862 38.0892 37.2824 39.6209C37.9266 40.8584 38.9815 44.2108 39.1539 40.1077C39.1996 39.0528 38.6011 38.8753 38.2968 37.5921C37.9925 36.3141 38.6265 35.4417 38.9511 35.0613C40.1987 33.6108 38.8699 30.4866 37.9824 30.4409V30.446Z" fill="#AC9AF8"/>
<path id="Vector_15" fill-rule="evenodd" clip-rule="evenodd" d="M76.192 32.2515C76.192 32.2515 76.1818 32.2819 76.1767 32.2972C75.7355 33.7731 75.4515 35.6699 75.3196 37.7443C75.1421 40.4627 74.7211 42.4813 74.7516 43.7493C74.7769 44.7332 75.0711 45.2708 75.9688 45.3266C78.0178 45.4585 78.9054 41.7865 80.3457 37.7341C81.705 33.9049 80.9493 29.812 79.1336 29.249C79.0271 29.2135 78.9155 29.1882 78.7989 29.1831C77.6374 29.107 76.7803 30.3141 76.192 32.2566V32.2515ZM78.6568 39.8541C77.9975 41.0866 76.9121 44.4238 76.7803 40.3258C76.7448 39.2709 77.3433 39.0934 77.6628 37.8203C77.9772 36.5473 77.3585 35.6648 77.0339 35.2844C75.8065 33.8187 77.1657 30.7097 78.0482 30.6742C78.9713 30.6336 79.4176 32.9261 79.5647 34.0977C79.7067 35.2642 79.4683 38.3377 78.6568 39.8592V39.8541Z" fill="#EEEAFF"/>
<path id="Vector_16" fill-rule="evenodd" clip-rule="evenodd" d="M78.0485 30.6691C77.1609 30.7046 75.8017 33.8136 77.0341 35.2794C77.3587 35.6648 77.9775 36.5422 77.6631 37.8153C77.3486 39.0883 76.7501 39.2658 76.7806 40.3207C76.9124 44.4238 77.9978 41.0815 78.6571 39.8541C79.4686 38.3326 79.707 35.2591 79.565 34.0926C79.4179 32.9261 78.9766 30.6336 78.0485 30.6691Z" fill="#AC9AF8"/>
<path id="Vector_17" fill-rule="evenodd" clip-rule="evenodd" d="M73.6862 65.6086C63.1825 66.9831 47.2469 60.5064 43.8438 49.5361C46.3543 54.6333 52.5977 59.7558 58.6584 59.7456C64.5062 59.7355 69.7454 55.039 72.2711 50.3324C71.8197 55.5665 71.4698 60.8209 73.6862 65.6137V65.6086Z" fill="#AC9AF8"/>
</g>
</g>
</svg>

<svg width="116" height="130" viewBox="0 0 116 130" fill="none" xmlns="http://www.w3.org/2000/svg"><path d="M73.772 65.624c-.755-.715-1.267-1.496-1.39-2.348-.329-2.339-.35-4.62-.35-5.118-.014-2.232.047-6.882.255-9.271-.046.076-2.592-.801-2.43 1.146.512 6.183-5.604 10.336-12.674 10.19-4.342-.092-8.242-3.226-11.072-7.654a26.736 26.736 0 0 1-1.258-2.176c.38 2.922.588 5.711.665 8.48 0 .127-.026 1.02-.061 1.968-.142 4.093-8.43 8.323-12.441 9.713 10.275 17.903 26.317 30.096 46.427 7.76l5.792-7.238c-2.095-.964-8.577-2.729-11.463-5.457v.005Z" fill="#EEEAFF"/><path d="M72.281 51.245c-.045.082-.09.158-.137.239.046-.076.092-.157.137-.234v-.005Z" fill="#F6F6FF"/><path fill-rule="evenodd" clip-rule="evenodd" d="M108.312 84.37c-.035-.077-.071-.148-.101-.224a13.808 13.808 0 0 0-7.07-6.806L77.293 67.11s-18.8 38.089-39.347-.964l-22.265 9.018a14.767 14.767 0 0 0-7.618 6.999l-.243.487C3.225 91.825.912 101.978.912 112.244V130h114.176v-14.779c0-10.656-2.267-21.205-6.776-30.857v.005Z" fill="#fff"/><path fill-rule="evenodd" clip-rule="evenodd" d="M45.482 57.98C36.865 66.42 32.747 83 30.201 95.44a6.085 6.085 0 0 0 .64 12.137 6.085 6.085 0 0 0 2.078-11.801c4.301-22.17 9.931-31.177 12.609-34.204 0-1.831.081-2.293-.046-3.596v.005Z" fill="#4C0069"/><path fill-rule="evenodd" clip-rule="evenodd" d="M30.841 97.794a3.704 3.704 0 0 1 0 7.405 3.703 3.703 0 0 1 0-7.405Zm58.904-12.816 1.806.223-2.049 22.29s-4.661 8.648-5.99 9.617c-1.004-.543-1.699-1.157-1.82-1.218 0 0 5.507-6.289 6.1-9.656.59-3.368 1.948-21.256 1.948-21.256h.005Z" fill="#AC9AF8"/><path fill-rule="evenodd" clip-rule="evenodd" d="m75.259 85.875-1.831.73 8.389 19.152c.415.953.466 1.065 1.207 1.75 1.663 1.541 6.912 6.319 8.226 6.735.781-.832 1.243-1.633 1.339-1.735 0 0-7.03-4.169-8.663-7.176-1.633-3.003-8.667-19.46-8.667-19.46v.004Z" fill="#AC9AF8"/><path fill-rule="evenodd" clip-rule="evenodd" d="M86.717 73.952c-1.131-.781-2.5-1.334-4.043-1.583-2.835-5.99-5.553-9.656-10.645-14.21 0 0-.046 1.358.198 3.22 2.606 2.084 6.126 6.821 8.267 10.848-1.943.056-4.083.563-6.335 1.664-2.653 1.293-2.277 6.172-1.932 8.186.344 2.018 1.374 5.472 1.552 5.822.573-.117 1.82-.43 2.2-.588 0 0-2.505-8.612-1.085-10.63 1.806-2.567 7.34-2.653 9.906-1.056 3.91 2.44 5.32 8.79 4.417 13.06l2.298.345c.613-6.745-.934-12.416-4.793-15.078h-.005Zm5.476 41.563a5.99 5.99 0 0 1-1.181-1.075l1.521-2.237c.467.162.482.076 1.456.761s2.19 1.795 1.491 2.881c-.7 1.085-1.826.695-3.287-.325v-.005Zm-11.527 1.202c.32-.482.68-.887 1.045-1.207l2.277 1.461c-.152.471-.066.482-.725 1.476-.66.989-1.735 2.241-2.84 1.567-1.106-.67-.746-1.811.238-3.292l.005-.005Z" fill="#4C0069"/><g fill-rule="evenodd" clip-rule="evenodd"><path d="M58.045 59.725c7.45.157 11.102-3.54 14.206-9.317 1.07-1.993 1.897-4.24 2.5-6.664-.03-1.268.391-3.286.569-6.005.137-2.074.42-3.966.857-5.447v-.03a6.158 6.158 0 0 1-.183.233c-.324-5.24-1.577-14.78-2.328-17.021-1.689-1.4-1.075-11.209-17.857-10.149-10.053-.593-14.186 10.59-14.252 10.697-1.025 1.633-1.243 8.312-1.81 15.798.02.228.04.457.065.685.36 1.415.583 3.145.69 5.026.08 1.476.233 2.744.355 3.799a32.722 32.722 0 0 0 2.916 8.186c3.124 6.025 7.232 10.204 14.272 10.2v.01Z" fill="#EEEAFF"/><path d="m39.554 31.617.193.208c.32.345.558.614.654.68.573-3.58-.299-.837 1.43-10.605.523-2.942.731-3.682 1.36-4.681.243-.386 1.613-.63 3.631-.766 7.79-.543 25.273.41 25.339.471.75 2.242 2.81 11.103 3.834 15.576.066-.081.122-.157.183-.233 0 0 .005-.01.01-.016.583-1.937 1.445-3.15 2.607-3.073.117.005.228.03.335.066.37-3.956.243-8.232.05-12.588C79.302 4.073 66-.574 55.9.056 38.17 1.16 34.119 12.999 36.827 29.198c1.618 0 2.307 1.167 2.723 2.42h.005Z" fill="#4C0069"/><path d="M39.95 32.51a15.942 15.942 0 0 0-.26-.898c-.562-1.694-1.363-2.733-2.439-2.672a1.5 1.5 0 0 0-.75.258c-1.517 1-2.095 4.742-.883 8.277 1.395 4.073 2.247 7.75 4.296 7.639 1.425-.077 1.35-1.375 1.08-3.779-.116-1.055-.274-2.323-.355-3.799-.101-1.881-.33-3.616-.69-5.026Zm-1.654 5.082c.304 1.278.898 1.46.857 2.516-.172 4.103-1.227.75-1.871-.487-.796-1.532-1.004-4.605-.847-5.772.157-1.166.624-3.454 1.547-3.403.887.045 2.216 3.17.968 4.62-.324.38-.958 1.253-.654 2.531v-.005Z" fill="#EEEAFF"/><path d="M37.982 30.446c-.923-.046-1.39 2.242-1.547 3.403-.157 1.167.051 4.24.847 5.772.645 1.237 1.7 4.59 1.872.487.046-1.055-.553-1.233-.857-2.516-.304-1.278.33-2.15.654-2.53 1.248-1.451-.081-4.575-.969-4.621v.005Z" fill="#AC9AF8"/><path d="m76.192 32.252-.015.045c-.442 1.476-.726 3.373-.857 5.447-.178 2.719-.599 4.737-.568 6.005.025.984.32 1.522 1.217 1.578 2.049.132 2.936-3.54 4.377-7.593 1.359-3.83.603-7.922-1.212-8.485a1.226 1.226 0 0 0-.335-.066c-1.162-.076-2.019 1.131-2.607 3.074v-.005Zm2.465 7.602c-.66 1.233-1.745 4.57-1.877.472-.035-1.055.563-1.233.883-2.506.314-1.273-.304-2.155-.63-2.536-1.227-1.465.133-4.574 1.015-4.61.923-.04 1.37 2.252 1.517 3.424.142 1.166-.097 4.24-.908 5.761v-.005Z" fill="#EEEAFF"/><path d="M78.049 30.67c-.888.035-2.247 3.144-1.015 4.61.325.385.944 1.262.63 2.535-.315 1.273-.914 1.45-.883 2.506.131 4.103 1.217.76 1.876-.467.812-1.521 1.05-4.595.908-5.761-.147-1.167-.588-3.46-1.516-3.424Zm-4.363 34.939c-10.504 1.374-26.44-5.103-29.842-16.073 2.51 5.097 8.754 10.22 14.814 10.21 5.848-.01 11.087-4.707 13.613-9.414-.451 5.234-.801 10.489 1.415 15.282v-.005Z" fill="#AC9AF8"/></g></svg>
